_includes/icons/ios-document.svg

<svg fill="#666" height="50" viewBox="0 0 50 50" width="50" xmlns="http://www.w3.org/2000/svg"><path d="m7 2v46h36v-33.40625l-.28125-.3125-12-12-.3125-.28125zm2 2h20v12h12v30h-32zm22 1.4375 8.5625 8.5625h-8.5625zm-16 16.5625v2h20v-2zm0 6v2h16v-2zm0 6v2h20v-2z"/></svg>

<svg xmlns="http://www.w3.org/2000/svg" viewBox="0 0 50 50" width="50" height="50" fill="#666"><path d="M 7 2 L 7 48 L 43 48 L 43 14.59375 L 42.71875 14.28125 L 30.71875 2.28125 L 30.40625 2 Z M 9 4 L 29 4 L 29 16 L 41 16 L 41 46 L 9 46 Z M 31 5.4375 L 39.5625 14 L 31 14 Z M 15 22 L 15 24 L 35 24 L 35 22 Z M 15 28 L 15 30 L 31 30 L 31 28 Z M 15 34 L 15 36 L 35 36 L 35 34 Z"/></svg>
